flaticon/essential/speaker-2.svg

<svg xmlns="http://www.w3.org/2000/svg" width="32" height="32" viewBox="0 0 24 24">
    <path d="M13.773438 2.964844C13.382812 2.742188 12.917969 2.742188 12.527344 2.972656 12.503906 2.988281 12.480469 3.003906 12.460938 3.023438L7.164062 7.957031C7.101562 7.984375 7.039062 8 6.972656 8L3.640625 8C2.957031 8 2.398438 8.558594 2.398438 9.242188L2.398438 14.359375C2.398438 15.042969 2.957031 15.601562 3.640625 15.601562L6.972656 15.601562C7.039062 15.601562 7.101562 15.613281 7.164062 15.644531L12.460938 20.574219C12.480469 20.59375 12.503906 20.613281 12.527344 20.628906 12.726562 20.742188 12.941406 20.800781 13.160156 20.800781 13.371094 20.800781 13.582031 20.746094 13.773438 20.636719 14.167969 20.410156 14.398438 20.007812 14.398438 19.558594L14.398438 4.042969C14.398438 3.589844 14.167969 3.1875 13.773438 2.964844zM13.601562 19.558594C13.601562 19.789062 13.445312 19.902344 13.378906 19.941406 13.3125 19.976562 13.152344 20.046875 12.96875 19.957031L7.671875 15.023438C7.648438 15.003906 7.625 14.984375 7.597656 14.972656 7.410156 14.859375 7.191406 14.800781 6.972656 14.800781L3.640625 14.800781C3.398438 14.800781 3.199219 14.601562 3.199219 14.359375L3.199219 9.242188C3.199219 8.996094 3.398438 8.800781 3.640625 8.800781L6.972656 8.800781C7.191406 8.800781 7.410156 8.742188 7.601562 8.628906 7.625 8.613281 7.648438 8.597656 7.671875 8.578125L12.96875 3.644531C13.152344 3.554688 13.316406 3.625 13.378906 3.660156 13.445312 3.699219 13.601562 3.8125 13.601562 4.042969zM17.300781 6.917969C17.144531 6.761719 16.890625 6.761719 16.734375 6.917969 16.578125 7.074219 16.578125 7.328125 16.734375 7.484375 19.230469 9.976562 19.230469 14.039062 16.734375 16.535156 16.578125 16.691406 16.578125 16.941406 16.734375 17.097656 16.8125 17.175781 16.914062 17.21875 17.015625 17.21875 17.117188 17.21875 17.222656 17.175781 17.300781 17.097656 20.105469 14.292969 20.105469 9.726562 17.300781 6.917969zM17.300781 6.917969"/>
    <path d="M 15.882812 8.117188 C 15.726562 7.960938 15.472656 7.960938 15.316406 8.117188 C 15.160156 8.273438 15.160156 8.527344 15.316406 8.683594 C 17.035156 10.402344 17.035156 13.199219 15.316406 14.917969 C 15.160156 15.074219 15.160156 15.328125 15.316406 15.484375 C 15.394531 15.5625 15.496094 15.601562 15.601562 15.601562 C 15.703125 15.601562 15.804688 15.5625 15.882812 15.484375 C 17.914062 13.453125 17.914062 10.148438 15.882812 8.117188 Z M 15.882812 8.117188"/>
    <path d="M 18.472656 4.917969 C 18.316406 4.761719 18.0625 4.761719 17.90625 4.917969 C 17.75 5.074219 17.75 5.328125 17.90625 5.484375 C 19.648438 7.226562 20.609375 9.539062 20.609375 12 C 20.609375 14.460938 19.648438 16.773438 17.90625 18.515625 C 17.75 18.671875 17.75 18.925781 17.90625 19.082031 C 17.984375 19.160156 18.089844 19.199219 18.191406 19.199219 C 18.292969 19.199219 18.394531 19.160156 18.472656 19.082031 C 20.367188 17.191406 21.410156 14.675781 21.410156 12 C 21.410156 9.324219 20.367188 6.808594 18.472656 4.917969 Z M 18.472656 4.917969"/>
    <path d="M 12 0 C 5.382812 0 0 5.382812 0 12 C 0 18.617188 5.382812 24 12 24 C 18.617188 24 24 18.617188 24 12 C 24 5.382812 18.617188 0 12 0 Z M 12 23.199219 C 5.824219 23.199219 0.800781 18.175781 0.800781 12 C 0.800781 5.824219 5.824219 0.800781 12 0.800781 C 18.175781 0.800781 23.199219 5.824219 23.199219 12 C 23.199219 18.175781 18.175781 23.199219 12 23.199219 Z M 12 23.199219"/>
</svg>

<svg xmlns="http://www.w3.org/2000/svg" width="32" height="32" viewBox="0 0 24 24">
    <path d="M13.773 2.965a1.227 1.227 0 0 0-1.246.008.426.426 0 0 0-.066.05L7.164 7.957A.471.471 0 0 1 6.973 8H3.64c-.684 0-1.243.559-1.243 1.242v5.117c0 .684.559 1.243 1.243 1.243h3.332c.066 0 .129.011.191.043l5.297 4.93c.02.019.043.038.066.054a1.234 1.234 0 0 0 1.246.008c.395-.227.625-.63.625-1.078V4.043c0-.453-.23-.856-.625-1.078zm-.171 16.594c0 .23-.157.343-.223.382a.442.442 0 0 1-.41.016l-5.297-4.934a1.214 1.214 0 0 0-.7-.223H3.642a.443.443 0 0 1-.442-.44V9.241c0-.246.2-.441.442-.441h3.332c.218 0 .437-.059.629-.172.023-.016.046-.031.07-.05l5.297-4.934a.44.44 0 0 1 .41.015c.066.04.223.152.223.383zm0 0M17.3 6.918a.4.4 0 0 0-.566.566c2.496 2.493 2.496 6.555 0 9.051a.396.396 0 0 0 0 .563.4.4 0 0 0 .282.12.41.41 0 0 0 .285-.12c2.804-2.805 2.804-7.371 0-10.18zm0 0"/>
    <path d="M15.883 8.117a.4.4 0 0 0-.567.567 4.413 4.413 0 0 1 0 6.234.4.4 0 0 0 .567.566 5.215 5.215 0 0 0 0-7.367zm0 0"/>
    <path d="M18.473 4.918a.4.4 0 0 0-.567.566A9.154 9.154 0 0 1 20.61 12c0 2.46-.96 4.773-2.703 6.516a.4.4 0 0 0 .567.566A9.94 9.94 0 0 0 21.41 12a9.94 9.94 0 0 0-2.937-7.082zm0 0"/>
    <path d="M12 0C5.383 0 0 5.383 0 12s5.383 12 12 12 12-5.383 12-12S18.617 0 12 0zm0 23.2C5.824 23.2.8 18.175.8 12 .8 5.824 5.825.8 12 .8 18.176.8 23.2 5.825 23.2 12c0 6.176-5.024 11.2-11.2 11.2zm0 0"/>
</svg>
